// must define at least 1 wave table (acceptable indices up to NUM_VOICES)
w0 w1 w3

// note state modifiers (length, octave, quantization)
l6 o3 q6

// note sequence for first defined wave
g a e f a+ b g a e f a+ b g a e f a+ b;

l2 o2 q6

// note sequence for second defined wave
a a a a-;
